X: 9
T:Muiñeira de Ramelle
M:6/8
L:1/8
C:Trad
S:Rec. por "Xacarandaina"
R:Muiñeira
B:Os Segredos da Gaita. FOXO
K:CMin
CDE |: G2FE2D | C3 CDE | A2G FGA | G3 CDE|
A2 G FGA | G2F EDE | GAG FED |1 C3 CDE :|2 C3 EDC |
|: =B,DE | FEF | EDC GAG | GAG FED | EDC EDC | 
=B,DE FEF | EDC GAG | GAG FED |1 C3 EDC :|2 C3 ||

